X: 1
T: Hambopolska fran Hede
R: hambo-polska
Z: John Chambers <jc@trillian.mit.edu>
M: 3/4
L: 1/8
K: D
|: "D"a2 (f>g) "(A)"e>f | "D"d2 A>f "(A)"e2 | "A7"a2 A2 c>e | "D"(gf) d2 (3(e/f/)g/ \
|  "D"a2 (f>g) "(A)"e>f | "D"d2 A>f "(A)"e2 | "A7"a2 A2 c>e | gf "D"d4 :|
|: "D"D2 F>A D>F | "G"G2 B>A "Em"G>B | "A7"A2 c>e A>c | "D"d2 f>e d>A \
|  "D"D2 F>A D>F | "G"G2 B>A "Em"G>B | "A7"A2 c>e A>c | "D"d2 d4 :|

%%sep 1 1 500

